src/_public/img/whitep4nth3r-darkmode.svg

<svg width="100%" height="100%" viewBox="0 0 1280 201" fill="none" xmlns="http://www.w3.org/2000/svg">
<g opacity="0.04">
<mask id="path-1-inside-1_2925_19344" fill="white">
<path d="M93.2 3.31999L82.32 93.88L73.04 3.31999H41.68L32.72 93.88L21.84 3.31999H-16.24L10.64 227.32H48.72V226.68C48.4 225.4 57.36 139 57.36 139C57.36 139 66.32 225.4 66.32 226.68L66 227.32H104.08L131.28 3.31999H93.2Z"/>
<path d="M201.375 3.31999V95.16H184.735V3.31999H143.135V227.32H184.735V135.16H201.375V227.32H243.295V3.31999H201.375Z"/>
<path d="M296.922 227.32V3.31999H255.323V227.32H296.922Z"/>
<path d="M406.68 3.31999H308.76V43H336.92V227.32H378.52V43H406.68V3.31999Z"/>
<path d="M502.92 43V3.31999H418.76V227.32H502.92V187.32H460.36V135.16H493V95.16H460.36V43H502.92Z"/>
<path d="M580.61 3.31999H515.01V227.32H556.61V146.68H580.61C600.13 146.68 615.49 131 615.49 111.8V37.88C615.49 18.68 599.81 3.31999 580.61 3.31999ZM573.89 98.68C573.89 103.16 570.37 106.68 565.57 106.68H556.61V43H565.57C570.37 43 573.89 46.84 573.89 51.32V98.68Z"/>
<path d="M719.67 146.36V3H687.67H678.71L628.15 146.36V183.16H683.51V227H719.67V183.16H733.43V146.36H719.67ZM665.59 146.36L684.15 93.88L683.51 146.36H665.59Z"/>
<path d="M806.74 3.31999V95.16L785.3 13.56L782.42 3.31999H746.26V227.32H785.3V144.44L806.74 227.32H846.1V3.31999H806.74Z"/>
<path d="M955.742 3.31999H857.823V43H885.982V227.32H927.583V43H955.742V3.31999Z"/>
<path d="M1026.06 3.31999V95.16H1009.42V3.31999H967.823V227.32H1009.42V135.16H1026.06V227.32H1067.98V3.31999H1026.06Z"/>
<path d="M1167.69 114.68C1173.13 109.56 1176.97 103.16 1179.21 96.12C1180.49 92.28 1181.13 88.76 1181.13 86.2V42.04C1181.13 19 1162.25 0.119995 1139.21 0.119995H1122.25C1099.21 0.119995 1080.65 19 1080.65 42.04V76.28H1122.25V48.44C1122.25 43.96 1125.77 40.12 1130.25 40.12H1131.21C1135.69 40.12 1139.21 43.96 1139.21 48.44V89.4C1139.21 93.88 1135.69 97.4 1131.21 97.4H1122.25V132.92H1131.21C1135.69 132.92 1139.21 136.44 1139.21 140.92V181.88C1139.21 186.36 1135.69 190.2 1131.21 190.2H1130.25C1125.77 190.2 1122.25 186.36 1122.25 181.88V154.04H1080.65V188.28C1080.65 211.32 1099.21 229.88 1122.25 229.88H1139.21C1162.25 229.88 1181.13 211.32 1181.13 188.28V144.12C1181.13 141.24 1180.49 138.04 1179.21 134.2C1176.97 126.84 1173.13 120.76 1167.69 115.64C1167.37 115.32 1167.37 115.32 1167.05 115C1167.37 115 1167.37 114.68 1167.69 114.68Z"/>
<path d="M1269.6 115.96H1268.96C1282.72 115.96 1294.24 104.76 1294.24 90.68V35.96C1294.24 17.72 1279.52 3.31999 1261.28 3.31999H1193.76V227H1235.36V136.12H1239.84C1246.88 136.12 1252.64 141.56 1252.64 148.6V227H1294.24V140.92C1294.24 127.16 1283.04 115.96 1269.6 115.96ZM1252.64 51.32V86.2C1252.64 91.64 1248.16 96.12 1242.72 96.12H1235.36V43H1244.32C1248.8 43 1252.64 46.84 1252.64 51.32Z"/>
</mask>
<path d="M93.2 3.31999L82.32 93.88L73.04 3.31999H41.68L32.72 93.88L21.84 3.31999H-16.24L10.64 227.32H48.72V226.68C48.4 225.4 57.36 139 57.36 139C57.36 139 66.32 225.4 66.32 226.68L66 227.32H104.08L131.28 3.31999H93.2Z" stroke="white" stroke-width="4" mask="url(#path-1-inside-1_2925_19344)"/>
<path d="M201.375 3.31999V95.16H184.735V3.31999H143.135V227.32H184.735V135.16H201.375V227.32H243.295V3.31999H201.375Z" stroke="white" stroke-width="4" mask="url(#path-1-inside-1_2925_19344)"/>
<path d="M296.922 227.32V3.31999H255.323V227.32H296.922Z" stroke="white" stroke-width="4" mask="url(#path-1-inside-1_2925_19344)"/>
<path d="M406.68 3.31999H308.76V43H336.92V227.32H378.52V43H406.68V3.31999Z" stroke="white" stroke-width="4" mask="url(#path-1-inside-1_2925_19344)"/>
<path d="M502.92 43V3.31999H418.76V227.32H502.92V187.32H460.36V135.16H493V95.16H460.36V43H502.92Z" stroke="white" stroke-width="4" mask="url(#path-1-inside-1_2925_19344)"/>
<path d="M580.61 3.31999H515.01V227.32H556.61V146.68H580.61C600.13 146.68 615.49 131 615.49 111.8V37.88C615.49 18.68 599.81 3.31999 580.61 3.31999ZM573.89 98.68C573.89 103.16 570.37 106.68 565.57 106.68H556.61V43H565.57C570.37 43 573.89 46.84 573.89 51.32V98.68Z" stroke="white" stroke-width="4" mask="url(#path-1-inside-1_2925_19344)"/>
<path d="M719.67 146.36V3H687.67H678.71L628.15 146.36V183.16H683.51V227H719.67V183.16H733.43V146.36H719.67ZM665.59 146.36L684.15 93.88L683.51 146.36H665.59Z" stroke="white" stroke-width="4" mask="url(#path-1-inside-1_2925_19344)"/>
<path d="M806.74 3.31999V95.16L785.3 13.56L782.42 3.31999H746.26V227.32H785.3V144.44L806.74 227.32H846.1V3.31999H806.74Z" stroke="white" stroke-width="4" mask="url(#path-1-inside-1_2925_19344)"/>
<path d="M955.742 3.31999H857.823V43H885.982V227.32H927.583V43H955.742V3.31999Z" stroke="white" stroke-width="4" mask="url(#path-1-inside-1_2925_19344)"/>
<path d="M1026.06 3.31999V95.16H1009.42V3.31999H967.823V227.32H1009.42V135.16H1026.06V227.32H1067.98V3.31999H1026.06Z" stroke="white" stroke-width="4" mask="url(#path-1-inside-1_2925_19344)"/>
<path d="M1167.69 114.68C1173.13 109.56 1176.97 103.16 1179.21 96.12C1180.49 92.28 1181.13 88.76 1181.13 86.2V42.04C1181.13 19 1162.25 0.119995 1139.21 0.119995H1122.25C1099.21 0.119995 1080.65 19 1080.65 42.04V76.28H1122.25V48.44C1122.25 43.96 1125.77 40.12 1130.25 40.12H1131.21C1135.69 40.12 1139.21 43.96 1139.21 48.44V89.4C1139.21 93.88 1135.69 97.4 1131.21 97.4H1122.25V132.92H1131.21C1135.69 132.92 1139.21 136.44 1139.21 140.92V181.88C1139.21 186.36 1135.69 190.2 1131.21 190.2H1130.25C1125.77 190.2 1122.25 186.36 1122.25 181.88V154.04H1080.65V188.28C1080.65 211.32 1099.21 229.88 1122.25 229.88H1139.21C1162.25 229.88 1181.13 211.32 1181.13 188.28V144.12C1181.13 141.24 1180.49 138.04 1179.21 134.2C1176.97 126.84 1173.13 120.76 1167.69 115.64C1167.37 115.32 1167.37 115.32 1167.05 115C1167.37 115 1167.37 114.68 1167.69 114.68Z" stroke="white" stroke-width="4" mask="url(#path-1-inside-1_2925_19344)"/>
<path d="M1269.6 115.96H1268.96C1282.72 115.96 1294.24 104.76 1294.24 90.68V35.96C1294.24 17.72 1279.52 3.31999 1261.28 3.31999H1193.76V227H1235.36V136.12H1239.84C1246.88 136.12 1252.64 141.56 1252.64 148.6V227H1294.24V140.92C1294.24 127.16 1283.04 115.96 1269.6 115.96ZM1252.64 51.32V86.2C1252.64 91.64 1248.16 96.12 1242.72 96.12H1235.36V43H1244.32C1248.8 43 1252.64 46.84 1252.64 51.32Z" stroke="white" stroke-width="4" mask="url(#path-1-inside-1_2925_19344)"/>
</g>
</svg>

<svg viewBox="0 0 1280 201" role="img" fill="none" xmlns="http://www.w3.org/2000/svg">
  <g opacity=".04">
    <mask id="a" fill="#fff">
      <path d="M93.2 3.32 82.32 93.88 73.04 3.32H41.68l-8.96 90.56L21.84 3.32h-38.08l26.88 224h38.08v-.64C48.4 225.4 57.36 139 57.36 139s8.96 86.4 8.96 87.68l-.32.64h38.08l27.2-224H93.2ZM201.375 3.32v91.84h-16.64V3.32h-41.6v224h41.6v-92.16h16.64v92.16h41.92v-224h-41.92ZM296.922 227.32v-224h-41.599v224h41.599ZM406.68 3.32h-97.92V43h28.16v184.32h41.6V43h28.16V3.32ZM502.92 43V3.32h-84.16v224h84.16v-40h-42.56v-52.16H493v-40h-32.64V43h42.56ZM580.61 3.32h-65.6v224h41.6v-80.64h24c19.52 0 34.88-15.68 34.88-34.88V37.88c0-19.2-15.68-34.56-34.88-34.56Zm-6.72 95.36c0 4.48-3.52 8-8.32 8h-8.96V43h8.96c4.8 0 8.32 3.84 8.32 8.32v47.36ZM719.67 146.36V3h-40.96l-50.56 143.36v36.8h55.36V227h36.16v-43.84h13.76v-36.8h-13.76Zm-54.08 0 18.56-52.48-.64 52.48h-17.92ZM806.74 3.32v91.84l-21.44-81.6-2.88-10.24h-36.16v224h39.04v-82.88l21.44 82.88h39.36v-224h-39.36ZM955.742 3.32h-97.919V43h28.159v184.32h41.601V43h28.159V3.32ZM1026.06 3.32v91.84h-16.64V3.32h-41.597v224h41.597v-92.16h16.64v92.16h41.92v-224h-41.92ZM1167.69 114.68c5.44-5.12 9.28-11.52 11.52-18.56 1.28-3.84 1.92-7.36 1.92-9.92V42.04c0-23.04-18.88-41.92-41.92-41.92h-16.96c-23.04 0-41.6 18.88-41.6 41.92v34.24h41.6V48.44c0-4.48 3.52-8.32 8-8.32h.96c4.48 0 8 3.84 8 8.32V89.4c0 4.48-3.52 8-8 8h-8.96v35.52h8.96c4.48 0 8 3.52 8 8v40.96c0 4.48-3.52 8.32-8 8.32h-.96c-4.48 0-8-3.84-8-8.32v-27.84h-41.6v34.24c0 23.04 18.56 41.6 41.6 41.6h16.96c23.04 0 41.92-18.56 41.92-41.6v-44.16c0-2.88-.64-6.08-1.92-9.92-2.24-7.36-6.08-13.44-11.52-18.56l-.64-.64c.32 0 .32-.32.64-.32ZM1269.6 115.96h-.64c13.76 0 25.28-11.2 25.28-25.28V35.96c0-18.24-14.72-32.64-32.96-32.64h-67.52V227h41.6v-90.88h4.48c7.04 0 12.8 5.44 12.8 12.48V227h41.6v-86.08c0-13.76-11.2-24.96-24.64-24.96Zm-16.96-64.64V86.2c0 5.44-4.48 9.92-9.92 9.92h-7.36V43h8.96c4.48 0 8.32 3.84 8.32 8.32Z"/>
    </mask>
    <path d="M93.2 3.32 82.32 93.88 73.04 3.32H41.68l-8.96 90.56L21.84 3.32h-38.08l26.88 224h38.08v-.64C48.4 225.4 57.36 139 57.36 139s8.96 86.4 8.96 87.68l-.32.64h38.08l27.2-224H93.2ZM201.375 3.32v91.84h-16.64V3.32h-41.6v224h41.6v-92.16h16.64v92.16h41.92v-224h-41.92ZM296.922 227.32v-224h-41.599v224h41.599ZM406.68 3.32h-97.92V43h28.16v184.32h41.6V43h28.16V3.32ZM502.92 43V3.32h-84.16v224h84.16v-40h-42.56v-52.16H493v-40h-32.64V43h42.56ZM580.61 3.32h-65.6v224h41.6v-80.64h24c19.52 0 34.88-15.68 34.88-34.88V37.88c0-19.2-15.68-34.56-34.88-34.56Zm-6.72 95.36c0 4.48-3.52 8-8.32 8h-8.96V43h8.96c4.8 0 8.32 3.84 8.32 8.32v47.36ZM719.67 146.36V3h-40.96l-50.56 143.36v36.8h55.36V227h36.16v-43.84h13.76v-36.8h-13.76Zm-54.08 0 18.56-52.48-.64 52.48h-17.92ZM806.74 3.32v91.84l-21.44-81.6-2.88-10.24h-36.16v224h39.04v-82.88l21.44 82.88h39.36v-224h-39.36ZM955.742 3.32h-97.919V43h28.159v184.32h41.601V43h28.159V3.32ZM1026.06 3.32v91.84h-16.64V3.32h-41.597v224h41.597v-92.16h16.64v92.16h41.92v-224h-41.92ZM1167.69 114.68c5.44-5.12 9.28-11.52 11.52-18.56 1.28-3.84 1.92-7.36 1.92-9.92V42.04c0-23.04-18.88-41.92-41.92-41.92h-16.96c-23.04 0-41.6 18.88-41.6 41.92v34.24h41.6V48.44c0-4.48 3.52-8.32 8-8.32h.96c4.48 0 8 3.84 8 8.32V89.4c0 4.48-3.52 8-8 8h-8.96v35.52h8.96c4.48 0 8 3.52 8 8v40.96c0 4.48-3.52 8.32-8 8.32h-.96c-4.48 0-8-3.84-8-8.32v-27.84h-41.6v34.24c0 23.04 18.56 41.6 41.6 41.6h16.96c23.04 0 41.92-18.56 41.92-41.6v-44.16c0-2.88-.64-6.08-1.92-9.92-2.24-7.36-6.08-13.44-11.52-18.56l-.64-.64c.32 0 .32-.32.64-.32ZM1269.6 115.96h-.64c13.76 0 25.28-11.2 25.28-25.28V35.96c0-18.24-14.72-32.64-32.96-32.64h-67.52V227h41.6v-90.88h4.48c7.04 0 12.8 5.44 12.8 12.48V227h41.6v-86.08c0-13.76-11.2-24.96-24.64-24.96Zm-16.96-64.64V86.2c0 5.44-4.48 9.92-9.92 9.92h-7.36V43h8.96c4.48 0 8.32 3.84 8.32 8.32Z" stroke="#fff" stroke-width="4" mask="url(#a)"/>
  </g>
</svg>
